X:1
T:Hosanna, with a cheerful sound
T:Hosanna, with a cheerful sound - Support (Thomas Clark)
C:Thomas Clark
Z:Text: Isaac Watts
%%score [ 1 2 3 4 ]
L:1/8
M:2/2
K:C
V:1 treble nm="SOPRANO" snm="S."
V:2 treble nm="ALTO" snm="A."
V:3 treble-8 transpose=-12 nm="TENOR" snm="T."
V:4 bass nm="BASS" snm="B."
V:1
 G2 | c4 B4 | (c2 d2 e2) f2 | e4 d4 | c4 z2 d2 | e4 c4 | A4 ^F4 | G8 | z2 G2 A2 B2 | c6 _B2 | %10
w: The|eve- ning|rests _ _ our|wea- ry|head, And|an- gels|guard the|room;|We wake, and|we ad-|
w: Ho-|san- na,|with _ _ a|cheer- ful|sound, To|God’s up-|hold- ing|hand;|Ten thou- sand|snares at-|
w: That|was a|most _ _ a-|ma- zing|pow’r That|rais’d us|with a|word,|And ev- ’ry|day and|
 A4 (d2 c2) | B4 (e2 d2) | c2 c2 f4- | f4 e4 | d4 z2 c2 | (B2 G2) (c2 d2) | e4 d4 | c8 |] %18
w: mire the _|bed That _|was not made|_ our|tomb, that|was _ not _|made our|tomb.|
w: tend us _|round, And _|yet se- cure|_ we|stand, and|yet _ se- *|cure we|stand.|
w: ev- ’ry _|hour We _|lean up- on|_ the|Lord, we|lean _ up- *|on the|Lord.|
V:2
 E2 | G4 G4 | G6 A2 | G4 F4 | E4 z2 G2 | G4 E4 | D6 C2 | B,8 | z2 E2 F2 G2 | A6 G2 | F6 G2 | %11
w: The|eve- ning|rests our|wea- ry|head, And|an- gels|guard the|room;|We wake, and|we ad-|mire the|
w: Ho-|san- na,|with a|cheer- ful|sound, To|God’s up-|hold- ing|hand;|Ten thou- sand|snares at-|tend us|
w: That|was a|most a-|ma- zing|pow’r That|rais’d us|with a|word,|And ev- ’ry|day and|ev- ’ry|
 D4 (C2 B,2) | (C2 E2) (F2 A2) | G4 G4 | G4 z2 G2 | G4 (G2 A2) | G4 F4 | E8 |] %18
w: bed That _|was _ not _|made our|tomb, that|was not _|made our|tomb.|
w: round, And _|yet _ se- *|cure we|stand, and|yet se- *|cure we|stand.|
w: hour We _|lean _ up- *|on the|Lord, we|lean up- *|on the|Lord.|
V:3
 c2 | c4 d4 | (e2 d2 c2) c2 | c4 B4 | c4 z2 B2 | c4 G4 | ^F4 A4 | G8 | z8 | z2 E2 F2 G2 | A6 G2 | %11
w: The|eve- ning|rests _ _ our|wea- ry|head, And|an- gels|guard the|room;||We wake, and|we ad-|
w: Ho-|san- na,|with _ _ a|cheer- ful|sound, To|God’s up-|hold- ing|hand;||Ten thou- sand|snares at-|
w: That|was a|most _ _ a-|ma- zing|pow’r That|rais’d us|with a|word,||And ev- ’ry|day and|
 F4 (G2 F2) | (E2 G2) (A2 c2) | d2 B2 c2 c2 | B4 z2 c2 | (d2 B2) c4 | c4 B4 | c8 |] %18
w: mire the _|bed _ That _|was not made our|tomb, that|was _ not|made our|tomb.|
w: tend us _|round, _ And _|yet se- cure we|stand, and|yet _ se-|cure we|stand.|
w: ev- ’ry _|hour _ We _|lean up- on the|Lord, we|lean _ up-|on the|Lord.|
V:4
 C,2 |"^6" E,4 G,4 | (C2"^6" B,2 C2) F,2 |"^64" G,4"^75" G,,4 | C,4 z2 G,2 | C4 C,4 |"^#" D,4 D,4 | %7
w: The|eve- ning|rests _ _ our|wea- ry|head, And|an- gels|guard the|
w: Ho-|san- na,|with _ _ a|cheer- ful|sound, To|God’s up-|hold- ing|
w: That|was a|most _ _ a-|ma- zing|pow’r That|rais’d us|with a|
 G,,8 | z8 | z2"^6" C,2"^7" D,2 E,2 | F,6"^6""^6" E,2 |"^6" D,4"^64""^73" G,4 | C,4"^6" A,4 | %13
w: room;||We wake, and|we ad-|mire the|bed That|
w: hand;||Ten thou- sand|snares at-|tend us|round, And|
w: word,||And ev- ’ry|day and|ev- ’ry|hour We|
"^Notes:The order of staves in the source is Tenor - [Alto] - Air - [Bass], with the alto part printed in the treble clefan octave above sounding pitch.Only the first verse of text is given in the source: subsequent verseshave here been added editorially.""^65" B,2 G,2 C2 C,2 | %14
w: was not made our|
w: yet se- cure we|
w: lean up- on the|
"^Our breath is forfeited by sinTo God’s revenging law;We own thy grace, immortal King,In ev’ry gasp we draw.God is our Sun, whose daily lightOur joy and safety brings;Our feeble flesh lies safe at nightBeneath his shady wings." G,4 z2 C2 | %15
w: tomb, that|
w: stand, and|
w: Lord, we|
 (G,2"^42" F,2)"^6" (E,2"^65" F,2) |"^64" G,4"^75" G,,4 | C,8 |] %18
w: was _ not _|made our|tomb.|
w: yet _ se- *|cure we|stand.|
w: lean _ up- *|on the|Lord.|

